!!!COM:	Johannes Ockeghem
!!!CDT:	~1425-1497/02/06
!!!OTL:	La despourveue
!!!AGN:	Chanson; Rondeau
!!!SCT:	Ock3008
!!!SCA:	Ock3008
!!!voices:	3
**kern	**kern	**kern
*staff3	*staff2	*staff1
*Ivox	*Ivox	*Ivox
*I"Contra	*I"Tenor	*I"Discantus
*I'C	*I'T	*I'D
*clefGv2	*clefGv2	*clefG2
*k[b-]	*k[b-]	*k[b-]
*M3/1	*M3/1	*M3/1
*met(O)	*met(O)	*met(O)
=1-	=1-	=1-
!	!	!LO:TX:X=-40:Z=16:t=Form&colon; rondeau
1r	1r	1r
1r	1r	1r
2.F/	1f	1f
4D/	.	.
=2	=2	=2
2C/	2e\	2g/
2F/	1f	1a
2r	.	.
2BB-/	2d\	2b-\
1C	1e	1g
=3	=3	=3
2D/	0d	1.f
1BB-	.	.
2.B-\	.	4e-i/
.	.	4d/
.	1d	2B-/
4G/	.	.
2F/	.	2f/
=4	=4	=4
2E-/	2e-i\	2g/
1B-	2d\	1f
.	1B-	.
2G/	.	1b-
2F/	2.c\	.
2c\	.	2a/
.	4A/	.
=5	=5	=5
2.d\	1G	1b-
4e\	.	.
0f	0F	1.cc
.	.	2a/
=6	=6	=6
0F	0f	1a
.	.	1r
1G	1e-i	1g
=7	=7	=7
2D/	2d\	2.f/
2BB-/	2f\	.
.	.	8e-i/L
.	.	8d/J
1C	2e-i\	2c/
.	1c	2e-i/
2r	.	1d
2G/	2Bni\	.
=8	=8	=8
2A/	0c	1c
2F/	.	.
4G/	.	1r
2A/	.	.
4B-\	.	.
1c	1F	1a
=9	=9	=9
2r	1c	1a
1F	.	.
.	0d	2f/
2.G/	.	1b-
4F/	.	.
2D/	.	2a/
=10	=10	=10
2r	1.c	1.a
1F	.	.
2A/	2A/	4g/
.	.	4f/
1G	2.B-\	2.g/
.	4A/	8f/L
.	.	8g/J
=11	=11	=11
1F	1c	1.a
2.A/	2.F/	.
.	.	2f/
4B-\	4D/	.
2c\	2C/	2.g/
2C/	2c\	.
.	.	4e/
=12	=12	=12
2D/	2B-\	2d/
1F	2A/	1c
.	1F	.
2D/	.	1f
1C	1G	.
.	.	2e/
=13	=13	=13
2r	0.F	0f
1c	.	.
2.d\	.	.
.	.	1r
8c\L	.	.
8B-\J	.	.
4.A/	.	.
8G/	.	.
=14	=14	=14
0.B-	[0.G	0d
.	.	2e-/
.	.	2d/
=15	=15	=15
2r	0.G]	1B-
1E-	.	.
.	.	1.e-i
1B-	.	.
2A/	.	2d/
=16	=16	=16
1.A	2.F/	2d/
.	.	1f
.	4D/	.
.	2F/	.
2B-\	2G/	4e-i/
.	.	4d/
1G	1E-i	2.c/
.	.	4B-/
=17	=17	=17
1.F	1D	2.d/
.	.	4e/
.	0BB-	1.f
1B-	.	.
4A/	.	2d/
4G/	.	.
=18	=18	=18
0.A;	0.F;	0.c;
=19	=19	=19
0F	0c	0a
1D	1F	1a
=20	=20	=20
1r	1G	1b-
0D	0F	2a/
.	.	1a
.	.	4g/
.	.	4f/
=21	=21	=21
0C	0c	1e
.	.	1r
[1BB-	1r	1d
=22	=22	=22
0.BB-]	0d	1f
.	.	0b-
.	1d	.
=23	=23	=23
1F	1.c	2.a/
.	.	4b-\
2C/	.	1.cc
1F	2A/	.
.	2A/	.
2G/	2G/	4b-\
.	.	4a/
=24	=24	=24
2.E/	2.c\	2.g/
4D/	4d\	4f/
1G	1B-	1g
2r	1A	[1a
[2F/	.	.
=25	=25	=25
2F/]	0c	2a/]
4E/	.	4g/
4D/	.	4f/
1C	.	1e
[1c	[1F	1r
=26	=26	=26
2c\]	0.F]	1a
1d	.	.
.	.	1a
2c\	.	.
1A	.	1a
=27	=27	=27
0D	0F	0a
1A	1F	1a
=28	=28	=28
2B-\	1E-i	1g
2c\	.	.
2d\	0D	1.f
1B-	.	.
4A/	.	2e/
4B-\	.	.
=29	=29	=29
2c\	2C/	1e
2C/	2c\	.
2G/	2B-\	2d/
2A/	2c\	1c
1F	1A	.
.	.	[2f/
=30	=30	=30
1D	1.d	4f/]
.	.	4g/
.	.	4a/
.	.	8g/L
.	.	8a/J
2G/	.	2b-\
1A	2c\	4a/
.	.	2cc\
.	1F	.
.	.	4b-\
[2c\	.	4a/
.	.	4f/
=31	=31	=31
4c\]	2E/	2g/
4B-\	.	.
1d	2D/	2.a/
.	1F	.
.	.	4f/
1c	.	1f
.	1G	.
2Bni\	.	2e/
=32	=32	=32
0.cl	0.Fl	0.fl
==	==	==
*-	*-	*-
!!!RDF**kern: l=long note in original notation
!!!RDF**kern: i=editorial accidental
!!!RDF**kern: V=start of tuplet marker
!!!RDF**kern: Z=end of tuplet marker
!!!ENC:	Chris Gage 06-25-2012
!!!END:	2012/06/29/
!!!EED:	Jesse Rodin
!!!EEV:	2012/07/16/
!!!ONB:	Translated from MusicXML and edited on 2012/07/16/ by Craig Sapp
!!muse2ps: C^@{COM}^i2I150v85,85,100Q16
